X: 453
T:Waiting for Emily
N: page 182
N: heptatonic
R: Waltz
M:3/4
L:1/8
K:D
FG|:"D"A2 ~A2 FA|"D/F#"d2 dc cc|"G"~c2 BA Bc|"A7"B2 A2 g2|
"D"f2 fg af|"Bm"d2 de fd|"Em"g2 gg ~f2|"A7"e2 ef (3gfe|
"D"f2 g2 a2|"D/F#"d2 dc cc|"G"~c2 BA Bc|"A7"B2 A2 g2|
"D"f2 fg af|"Bm"d2 de fd|"A7"g2 e2 c2|[1"D"d4 FG:|[2"D"d4 A2|
|:"G"B2 d2 B2|"D"A2 AG F2|"A7"E2 ~E2 DE|"D"F2 D2 A,2|
"G"B,2 B,C DE|"D"FE DC DE|"Bm7"F2 A2 GF|"A7"ED EF GA|
"G"B2 d2 B2|"D"A2 AG F2|"A7"E2 ~E2 DE|"Bm"F2 D2 A,2|
"G"B,2 B,C DE|"D"FE DC DE|[1"D"F2 A2 "A7"FE|"D"DE FG A2:|[2"D"F2 A2 "A7"FE|"D"D6||
%newpage
%%scale 0.8
